Newaita-dark/apps/48/com.github.davidmhewitt.torrential.svg

<svg height="48pt" viewBox="0 0 48 48" width="48pt" xmlns="http://www.w3.org/2000/svg" xmlns:xlink="http://www.w3.org/1999/xlink"><linearGradient id="a"><stop offset="0" stop-opacity=".313726"/><stop offset=".222222" stop-opacity=".27451"/><stop offset="1" stop-opacity="0"/></linearGradient><radialGradient id="b" cx="450.908936" cy="189.579361" gradientTransform="matrix(.00000026 -.117199 -.210958 -.00000015 63.311739 95.392999)" gradientUnits="userSpaceOnUse" r="21.166656" xlink:href="#a"/><radialGradient id="c" cx="450.908936" cy="189.579361" gradientTransform="matrix(-.00000026 .117199 .210958 .00000015 -15.682186 -11.291218)" gradientUnits="userSpaceOnUse" r="21.166656" xlink:href="#a"/><radialGradient id="d" cx="450.908936" cy="189.579361" gradientTransform="matrix(-.00000026 -.117199 .210958 -.00000015 -15.682186 95.392999)" gradientUnits="userSpaceOnUse" r="21.166656" xlink:href="#a"/><radialGradient id="e" cx="450.908936" cy="189.579361" gradientTransform="matrix(.00000026 .117199 -.210958 .00000015 63.311736 -11.291219)" gradientUnits="userSpaceOnUse" r="21.166656" xlink:href="#a"/><linearGradient id="f"><stop offset="0" stop-color="#e0e0e0"/><stop offset="1" stop-color="#eee"/></linearGradient><linearGradient id="g" gradientUnits="userSpaceOnUse" x1="23.814816" x2="23.814816" xlink:href="#f" y1="42.05096580616" y2="4.34417266504"/><linearGradient id="h" gradientUnits="userSpaceOnUse" x1="23.814816" x2="23.814816" y1="4.34417306195" y2="42.05096580616"><stop offset="0" stop-color="#42a5f5"/><stop offset="1" stop-color="#64b5f6"/></linearGradient><linearGradient id="i" gradientUnits="userSpaceOnUse" x1="23.814786" x2="23.814786" y1="42.0509015" y2="4.3441580001"><stop offset="0" stop-color="#90caf9"/><stop offset="1" stop-color="#64b5f6"/></linearGradient><linearGradient id="j" gradientUnits="userSpaceOnUse" x1="23.814816" x2="23.814816" y1="42.05096580616" y2="4.34417266504"><stop offset="0" stop-color="#bbdefb"/><stop offset="1" stop-color="#90caf9"/></linearGradient><linearGradient id="k" gradientUnits="userSpaceOnUse" x1="23.814786" x2="23.814786" xlink:href="#f" y1="19.22842131251" y2="23.19755237501"/><linearGradient id="l" gradientUnits="userSpaceOnUse" x1="23.814786" x2="23.814786" xlink:href="#f" y1="19.72456118751" y2="23.19755075"/><path d="m23.816406 42.050781h3.96875v-1.984375h-3.96875zm0 0" fill="url(#b)"/><path d="m23.816406 42.050781h-3.972656v1.984375h3.972656zm0 0" fill="url(#c)"/><path d="m23.816406 42.050781h-3.972656v-1.984375h3.972656zm0 0" fill="url(#d)"/><path d="m23.816406 42.050781h3.96875v1.984375h-3.96875zm0 0" fill="url(#e)"/><path d="m17.859375 4.34375c-1.097656 0-1.984375.886719-1.984375 1.984375v19.847656h-5.953125c-1.839844 0-2.6875 2.289063-1.289063 3.488281l13.890626 11.910157c.742187.636719 1.839843.636719 2.582031 0l13.894531-11.910157c1.398438-1.199218.550781-3.488281-1.292969-3.488281h-5.953125v-19.847656c0-1.097656-.886718-1.984375-1.984375-1.984375zm0 0" fill="url(#g)"/><path d="m17.859375 4.34375c-1.097656 0-1.984375.886719-1.984375 1.984375v3.472656h15.878906v-3.472656c0-1.097656-.886718-1.984375-1.984375-1.984375zm0 0" fill="url(#h)"/><path d="m23.792969 7.816406c-1.089844 0-1.960938.886719-1.960938 1.984375h-5.957031v5.953125h15.878906v-5.953125h-5.953125c0-1.097656-.875-1.984375-1.964843-1.984375zm0 0" fill="url(#i)"/><path d="m23.792969 13.769531c-1.089844 0-1.960938.886719-1.960938 1.984375h-5.957031v5.957032h15.878906v-5.957032h-5.953125c0-1.097656-.875-1.984375-1.964843-1.984375zm0 0" fill="url(#j)"/><path d="m23.816406 13.273438c-1.101562 0-1.984375.886718-1.984375 1.984374h-5.957031v.496094h5.957031c0-1.097656.882813-1.984375 1.984375-1.984375 1.097656 0 1.984375.886719 1.984375 1.984375h5.953125v-.496094h-5.953125c0-1.097656-.886719-1.984374-1.984375-1.984374zm0 0" fill-opacity=".235294"/><g fill="#fff"><path d="m23.816406 13.769531c-1.101562 0-1.984375.886719-1.984375 1.984375h-5.957031v.496094h5.957031c0-1.097656.882813-1.984375 1.984375-1.984375 1.097656 0 1.984375.886719 1.984375 1.984375h5.953125v-.496094h-5.953125c0-1.097656-.886719-1.984375-1.984375-1.984375zm0 0" fill-opacity=".392157"/><path d="m17.859375 4.34375c-1.097656 0-1.984375.886719-1.984375 1.984375v.746094c0-1.101563.886719-1.984375 1.984375-1.984375h11.910156c1.097657 0 1.984375.882812 1.984375 1.984375v-.746094c0-1.097656-.886718-1.984375-1.984375-1.984375zm0 0" fill-opacity=".392157"/><path d="m9.921875 26.175781c-1.355469 0-2.171875 1.238281-1.953125 2.371094.164062-.871094.894531-1.628906 1.953125-1.628906h5.953125v-.742188zm0 0"/><path d="m31.753906 26.175781v.742188h5.953125c1.058594 0 1.789063.757812 1.953125 1.628906.21875-1.132813-.597656-2.371094-1.953125-2.371094zm0 0"/></g><path d="m7.941406 27.992188c-.050781.59375.152344 1.214843.691406 1.671874l13.890626 11.910157c.742187.636719 1.839843.636719 2.582031 0l13.894531-11.910157c.535156-.457031.742188-1.078124.6875-1.671874-.046875.472656-.261719.941406-.6875 1.308593l-13.894531 11.90625c-.742188.636719-1.839844.636719-2.582031 0l-13.890626-11.90625c-.429687-.367187-.644531-.835937-.691406-1.308593zm0 0" fill-opacity=".235294"/><path d="m23.816406 19.226562c-1.101562 0-1.984375.886719-1.984375 1.988282h-5.957031v1.984375h15.878906v-1.984375h-5.953125c0-1.101563-.886719-1.988282-1.984375-1.988282zm0 0" fill="url(#k)"/><path d="m23.816406 19.226562c-1.101562 0-1.984375.886719-1.984375 1.988282h-5.957031v1.984375h15.878906v-1.984375h-5.953125c0-1.101563-.886719-1.988282-1.984375-1.988282zm0 0" fill="url(#l)"/><path d="m23.816406 19.226562c-1.101562 0-1.984375.886719-1.984375 1.988282h-5.957031v.496094h5.957031c0-1.101563.882813-1.988282 1.984375-1.988282 1.097656 0 1.984375.886719 1.984375 1.988282h5.953125v-.496094h-5.953125c0-1.101563-.886719-1.988282-1.984375-1.988282zm0 0" fill-opacity=".235294"/><path d="m23.816406 19.722656c-1.101562 0-1.984375.886719-1.984375 1.988282h-5.957031v.496093h5.957031c0-1.101562.882813-1.988281 1.984375-1.988281 1.097656 0 1.984375.886719 1.984375 1.988281h5.953125v-.496093h-5.953125c0-1.101563-.886719-1.988282-1.984375-1.988282zm0 0" fill="#fff"/><path d="m23.816406 7.320312c-1.101562 0-1.984375.886719-1.984375 1.984376h-5.957031v.496093h5.957031c0-1.097656.882813-1.984375 1.984375-1.984375 1.097656 0 1.984375.886719 1.984375 1.984375h5.953125v-.496093h-5.953125c0-1.097657-.886719-1.984376-1.984375-1.984376zm0 0" fill-opacity=".235294"/><path d="m23.816406 7.816406c-1.101562 0-1.984375.886719-1.984375 1.984375h-5.957031v.496094h5.957031c0-1.097656.882813-1.984375 1.984375-1.984375 1.097656 0 1.984375.886719 1.984375 1.984375h5.953125v-.496094h-5.953125c0-1.097656-.886719-1.984375-1.984375-1.984375zm0 0" fill="#fff" fill-opacity=".392157"/><path d="m17.859375 4.203125c-1.171875 0-2.125.949219-2.125 2.125v19.707031h-5.8125c-.976563 0-1.707031.613282-1.992187 1.386719-.285157.773437-.132813 1.714844.609374 2.351563l13.894532 11.90625c.792968.683593 1.96875.683593 2.765625 0l13.890625-11.90625c.742187-.636719.894531-1.578126.609375-2.351563-.285157-.773437-1.011719-1.386719-1.992188-1.386719h-5.8125v-19.707031c0-1.175781-.949219-2.125-2.125-2.125zm0 .28125h11.910156c1.023438 0 1.84375.820313 1.84375 1.84375v19.847656c0 .078125.0625.140625.140625.140625h5.953125c.863281 0 1.480469.527344 1.730469 1.203125.246094.671875.125 1.476563-.53125 2.039063l-13.890625 11.90625c-.691406.59375-1.710937.59375-2.402344 0l-13.890625-11.90625c-.65625-.5625-.777344-1.367188-.527344-2.039063.246094-.675781.863282-1.203125 1.726563-1.203125h5.953125c.078125 0 .140625-.0625.140625-.140625v-19.847656c0-1.023437.820313-1.84375 1.84375-1.84375zm0 0" fill="#212121"/></svg>

<?xml version="1.0" encoding="UTF-8"?>
<svg xmlns="http://www.w3.org/2000/svg" xmlns:xlink="http://www.w3.org/1999/xlink" width="48pt" height="48pt" viewBox="0 0 48 48" version="1.1">
<defs>
<radialGradient id="radial0" gradientUnits="userSpaceOnUse" cx="450.908936" cy="189.579361" fx="450.908936" fy="189.579361" r="21.166656" gradientTransform="matrix(0.000000261256,-0.117199,-0.210958,-0.000000152308,63.311739,95.392999)">
<stop offset="0" style="stop-color:rgb(0%,0%,0%);stop-opacity:0.313726;"/>
<stop offset="0.222222" style="stop-color:rgb(0%,0%,0%);stop-opacity:0.27451;"/>
<stop offset="1" style="stop-color:rgb(0%,0%,0%);stop-opacity:0;"/>
</radialGradient>
<radialGradient id="radial1" gradientUnits="userSpaceOnUse" cx="450.908936" cy="189.579361" fx="450.908936" fy="189.579361" r="21.166656" gradientTransform="matrix(-0.000000261256,0.117199,0.210958,0.000000152308,-15.682186,-11.291218)">
<stop offset="0" style="stop-color:rgb(0%,0%,0%);stop-opacity:0.313726;"/>
<stop offset="0.222222" style="stop-color:rgb(0%,0%,0%);stop-opacity:0.27451;"/>
<stop offset="1" style="stop-color:rgb(0%,0%,0%);stop-opacity:0;"/>
</radialGradient>
<radialGradient id="radial2" gradientUnits="userSpaceOnUse" cx="450.908936" cy="189.579361" fx="450.908936" fy="189.579361" r="21.166656" gradientTransform="matrix(-0.000000261256,-0.117199,0.210958,-0.000000152308,-15.682186,95.392999)">
<stop offset="0" style="stop-color:rgb(0%,0%,0%);stop-opacity:0.313726;"/>
<stop offset="0.222222" style="stop-color:rgb(0%,0%,0%);stop-opacity:0.27451;"/>
<stop offset="1" style="stop-color:rgb(0%,0%,0%);stop-opacity:0;"/>
</radialGradient>
<radialGradient id="radial3" gradientUnits="userSpaceOnUse" cx="450.908936" cy="189.579361" fx="450.908936" fy="189.579361" r="21.166656" gradientTransform="matrix(0.000000261256,0.117199,-0.210958,0.000000152308,63.311736,-11.291219)">
<stop offset="0" style="stop-color:rgb(0%,0%,0%);stop-opacity:0.313726;"/>
<stop offset="0.222222" style="stop-color:rgb(0%,0%,0%);stop-opacity:0.27451;"/>
<stop offset="1" style="stop-color:rgb(0%,0%,0%);stop-opacity:0;"/>
</radialGradient>
<linearGradient id="linear0" gradientUnits="userSpaceOnUse" x1="960" y1="1695.118164" x2="960" y2="175.118118" gradientTransform="matrix(0.0248071,0,0,0.0248071,0,0.00000000000000282)">
<stop offset="0" style="stop-color:rgb(87.843138%,87.843138%,87.843138%);stop-opacity:1;"/>
<stop offset="1" style="stop-color:rgb(93.333334%,93.333334%,93.333334%);stop-opacity:1;"/>
</linearGradient>
<linearGradient id="linear1" gradientUnits="userSpaceOnUse" x1="960" y1="175.118134" x2="960" y2="1695.118164" gradientTransform="matrix(0.0248071,0,0,0.0248071,0,0.00000000000000282)">
<stop offset="0" style="stop-color:rgb(25.882354%,64.705884%,96.078432%);stop-opacity:1;"/>
<stop offset="1" style="stop-color:rgb(39.215687%,70.980394%,96.470588%);stop-opacity:1;"/>
</linearGradient>
<linearGradient id="linear2" gradientUnits="userSpaceOnUse" x1="254" y1="233.5" x2="254" y2="-168.666656" gradientTransform="matrix(0.093759,0,0,0.093759,0,20.158175)">
<stop offset="0" style="stop-color:rgb(56.470591%,79.215688%,97.647059%);stop-opacity:1;"/>
<stop offset="1" style="stop-color:rgb(39.215687%,70.980394%,96.470588%);stop-opacity:1;"/>
</linearGradient>
<linearGradient id="linear3" gradientUnits="userSpaceOnUse" x1="960" y1="1695.118164" x2="960" y2="175.118118" gradientTransform="matrix(0.0248071,0,0,0.0248071,0,0.00000000000000282)">
<stop offset="0" style="stop-color:rgb(73.333335%,87.058824%,98.431373%);stop-opacity:1;"/>
<stop offset="1" style="stop-color:rgb(56.470591%,79.215688%,97.647059%);stop-opacity:1;"/>
</linearGradient>
<linearGradient id="linear4" gradientUnits="userSpaceOnUse" x1="254" y1="-9.916666" x2="254" y2="32.416668" gradientTransform="matrix(0.093759,0,0,0.093759,0,20.158198)">
<stop offset="0" style="stop-color:rgb(87.843138%,87.843138%,87.843138%);stop-opacity:1;"/>
<stop offset="1" style="stop-color:rgb(93.333334%,93.333334%,93.333334%);stop-opacity:1;"/>
</linearGradient>
<linearGradient id="linear5" gradientUnits="userSpaceOnUse" x1="254" y1="-25.791666" x2="254" y2="11.25" gradientTransform="matrix(0.093759,0,0,0.093759,0,22.142762)">
<stop offset="0" style="stop-color:rgb(87.843138%,87.843138%,87.843138%);stop-opacity:1;"/>
<stop offset="1" style="stop-color:rgb(93.333334%,93.333334%,93.333334%);stop-opacity:1;"/>
</linearGradient>
</defs>
<g id="surface1">
<path style=" stroke:none;fill-rule:nonzero;fill:url(#radial0);" d="M 23.816406 42.050781 L 27.785156 42.050781 L 27.785156 40.066406 L 23.816406 40.066406 Z M 23.816406 42.050781 "/>
<path style=" stroke:none;fill-rule:nonzero;fill:url(#radial1);" d="M 23.816406 42.050781 L 19.84375 42.050781 L 19.84375 44.035156 L 23.816406 44.035156 Z M 23.816406 42.050781 "/>
<path style=" stroke:none;fill-rule:nonzero;fill:url(#radial2);" d="M 23.816406 42.050781 L 19.84375 42.050781 L 19.84375 40.066406 L 23.816406 40.066406 Z M 23.816406 42.050781 "/>
<path style=" stroke:none;fill-rule:nonzero;fill:url(#radial3);" d="M 23.816406 42.050781 L 27.785156 42.050781 L 27.785156 44.035156 L 23.816406 44.035156 Z M 23.816406 42.050781 "/>
<path style=" stroke:none;fill-rule:nonzero;fill:url(#linear0);" d="M 17.859375 4.34375 C 16.761719 4.34375 15.875 5.230469 15.875 6.328125 L 15.875 26.175781 L 9.921875 26.175781 C 8.082031 26.175781 7.234375 28.464844 8.632812 29.664062 L 22.523438 41.574219 C 23.265625 42.210938 24.363281 42.210938 25.105469 41.574219 L 39 29.664062 C 40.398438 28.464844 39.550781 26.175781 37.707031 26.175781 L 31.753906 26.175781 L 31.753906 6.328125 C 31.753906 5.230469 30.867188 4.34375 29.769531 4.34375 Z M 17.859375 4.34375 "/>
<path style=" stroke:none;fill-rule:nonzero;fill:url(#linear1);" d="M 17.859375 4.34375 C 16.761719 4.34375 15.875 5.230469 15.875 6.328125 L 15.875 9.800781 L 31.753906 9.800781 L 31.753906 6.328125 C 31.753906 5.230469 30.867188 4.34375 29.769531 4.34375 Z M 17.859375 4.34375 "/>
<path style=" stroke:none;fill-rule:nonzero;fill:url(#linear2);" d="M 23.792969 7.816406 C 22.703125 7.816406 21.832031 8.703125 21.832031 9.800781 L 15.875 9.800781 L 15.875 15.753906 L 31.753906 15.753906 L 31.753906 9.800781 L 25.800781 9.800781 C 25.800781 8.703125 24.925781 7.816406 23.835938 7.816406 Z M 23.792969 7.816406 "/>
<path style=" stroke:none;fill-rule:nonzero;fill:url(#linear3);" d="M 23.792969 13.769531 C 22.703125 13.769531 21.832031 14.65625 21.832031 15.753906 L 15.875 15.753906 L 15.875 21.710938 L 31.753906 21.710938 L 31.753906 15.753906 L 25.800781 15.753906 C 25.800781 14.65625 24.925781 13.769531 23.835938 13.769531 Z M 23.792969 13.769531 "/>
<path style=" stroke:none;fill-rule:nonzero;fill:rgb(0%,0%,0%);fill-opacity:0.235294;" d="M 23.816406 13.273438 C 22.714844 13.273438 21.832031 14.160156 21.832031 15.257812 L 15.875 15.257812 L 15.875 15.753906 L 21.832031 15.753906 C 21.832031 14.65625 22.714844 13.769531 23.816406 13.769531 C 24.914062 13.769531 25.800781 14.65625 25.800781 15.753906 L 31.753906 15.753906 L 31.753906 15.257812 L 25.800781 15.257812 C 25.800781 14.160156 24.914062 13.273438 23.816406 13.273438 Z M 23.816406 13.273438 "/>
<path style=" stroke:none;fill-rule:nonzero;fill:rgb(100%,100%,100%);fill-opacity:0.392157;" d="M 23.816406 13.769531 C 22.714844 13.769531 21.832031 14.65625 21.832031 15.753906 L 15.875 15.753906 L 15.875 16.25 L 21.832031 16.25 C 21.832031 15.152344 22.714844 14.265625 23.816406 14.265625 C 24.914062 14.265625 25.800781 15.152344 25.800781 16.25 L 31.753906 16.25 L 31.753906 15.753906 L 25.800781 15.753906 C 25.800781 14.65625 24.914062 13.769531 23.816406 13.769531 Z M 23.816406 13.769531 "/>
<path style=" stroke:none;fill-rule:nonzero;fill:rgb(100%,100%,100%);fill-opacity:0.392157;" d="M 17.859375 4.34375 C 16.761719 4.34375 15.875 5.230469 15.875 6.328125 L 15.875 7.074219 C 15.875 5.972656 16.761719 5.089844 17.859375 5.089844 L 29.769531 5.089844 C 30.867188 5.089844 31.753906 5.972656 31.753906 7.074219 L 31.753906 6.328125 C 31.753906 5.230469 30.867188 4.34375 29.769531 4.34375 Z M 17.859375 4.34375 "/>
<path style=" stroke:none;fill-rule:nonzero;fill:rgb(100%,100%,100%);fill-opacity:1;" d="M 9.921875 26.175781 C 8.566406 26.175781 7.75 27.414062 7.96875 28.546875 C 8.132812 27.675781 8.863281 26.917969 9.921875 26.917969 L 15.875 26.917969 L 15.875 26.175781 Z M 9.921875 26.175781 "/>
<path style=" stroke:none;fill-rule:nonzero;fill:rgb(100%,100%,100%);fill-opacity:1;" d="M 31.753906 26.175781 L 31.753906 26.917969 L 37.707031 26.917969 C 38.765625 26.917969 39.496094 27.675781 39.660156 28.546875 C 39.878906 27.414062 39.0625 26.175781 37.707031 26.175781 Z M 31.753906 26.175781 "/>
<path style=" stroke:none;fill-rule:nonzero;fill:rgb(0%,0%,0%);fill-opacity:0.235294;" d="M 7.941406 27.992188 C 7.890625 28.585938 8.09375 29.207031 8.632812 29.664062 L 22.523438 41.574219 C 23.265625 42.210938 24.363281 42.210938 25.105469 41.574219 L 39 29.664062 C 39.535156 29.207031 39.742188 28.585938 39.6875 27.992188 C 39.640625 28.464844 39.425781 28.933594 39 29.300781 L 25.105469 41.207031 C 24.363281 41.84375 23.265625 41.84375 22.523438 41.207031 L 8.632812 29.300781 C 8.203125 28.933594 7.988281 28.464844 7.941406 27.992188 Z M 7.941406 27.992188 "/>
<path style=" stroke:none;fill-rule:nonzero;fill:url(#linear4);" d="M 23.816406 19.226562 C 22.714844 19.226562 21.832031 20.113281 21.832031 21.214844 L 15.875 21.214844 L 15.875 23.199219 L 31.753906 23.199219 L 31.753906 21.214844 L 25.800781 21.214844 C 25.800781 20.113281 24.914062 19.226562 23.816406 19.226562 Z M 23.816406 19.226562 "/>
<path style=" stroke:none;fill-rule:nonzero;fill:url(#linear5);" d="M 23.816406 19.226562 C 22.714844 19.226562 21.832031 20.113281 21.832031 21.214844 L 15.875 21.214844 L 15.875 23.199219 L 31.753906 23.199219 L 31.753906 21.214844 L 25.800781 21.214844 C 25.800781 20.113281 24.914062 19.226562 23.816406 19.226562 Z M 23.816406 19.226562 "/>
<path style=" stroke:none;fill-rule:nonzero;fill:rgb(0%,0%,0%);fill-opacity:0.235294;" d="M 23.816406 19.226562 C 22.714844 19.226562 21.832031 20.113281 21.832031 21.214844 L 15.875 21.214844 L 15.875 21.710938 L 21.832031 21.710938 C 21.832031 20.609375 22.714844 19.722656 23.816406 19.722656 C 24.914062 19.722656 25.800781 20.609375 25.800781 21.710938 L 31.753906 21.710938 L 31.753906 21.214844 L 25.800781 21.214844 C 25.800781 20.113281 24.914062 19.226562 23.816406 19.226562 Z M 23.816406 19.226562 "/>
<path style=" stroke:none;fill-rule:nonzero;fill:rgb(100%,100%,100%);fill-opacity:1;" d="M 23.816406 19.722656 C 22.714844 19.722656 21.832031 20.609375 21.832031 21.710938 L 15.875 21.710938 L 15.875 22.207031 L 21.832031 22.207031 C 21.832031 21.105469 22.714844 20.21875 23.816406 20.21875 C 24.914062 20.21875 25.800781 21.105469 25.800781 22.207031 L 31.753906 22.207031 L 31.753906 21.710938 L 25.800781 21.710938 C 25.800781 20.609375 24.914062 19.722656 23.816406 19.722656 Z M 23.816406 19.722656 "/>
<path style=" stroke:none;fill-rule:nonzero;fill:rgb(0%,0%,0%);fill-opacity:0.235294;" d="M 23.816406 7.320312 C 22.714844 7.320312 21.832031 8.207031 21.832031 9.304688 L 15.875 9.304688 L 15.875 9.800781 L 21.832031 9.800781 C 21.832031 8.703125 22.714844 7.816406 23.816406 7.816406 C 24.914062 7.816406 25.800781 8.703125 25.800781 9.800781 L 31.753906 9.800781 L 31.753906 9.304688 L 25.800781 9.304688 C 25.800781 8.207031 24.914062 7.320312 23.816406 7.320312 Z M 23.816406 7.320312 "/>
<path style=" stroke:none;fill-rule:nonzero;fill:rgb(100%,100%,100%);fill-opacity:0.392157;" d="M 23.816406 7.816406 C 22.714844 7.816406 21.832031 8.703125 21.832031 9.800781 L 15.875 9.800781 L 15.875 10.296875 L 21.832031 10.296875 C 21.832031 9.199219 22.714844 8.3125 23.816406 8.3125 C 24.914062 8.3125 25.800781 9.199219 25.800781 10.296875 L 31.753906 10.296875 L 31.753906 9.800781 L 25.800781 9.800781 C 25.800781 8.703125 24.914062 7.816406 23.816406 7.816406 Z M 23.816406 7.816406 "/>
<path style=" stroke:none;fill-rule:nonzero;fill:rgb(12.941177%,12.941177%,12.941177%);fill-opacity:1;" d="M 17.859375 4.203125 C 16.6875 4.203125 15.734375 5.152344 15.734375 6.328125 L 15.734375 26.035156 L 9.921875 26.035156 C 8.945312 26.035156 8.214844 26.648438 7.929688 27.421875 C 7.644531 28.195312 7.796875 29.136719 8.539062 29.773438 L 22.433594 41.679688 C 23.226562 42.363281 24.402344 42.363281 25.199219 41.679688 L 39.089844 29.773438 C 39.832031 29.136719 39.984375 28.195312 39.699219 27.421875 C 39.414062 26.648438 38.6875 26.035156 37.707031 26.035156 L 31.894531 26.035156 L 31.894531 6.328125 C 31.894531 5.152344 30.945312 4.203125 29.769531 4.203125 Z M 17.859375 4.484375 L 29.769531 4.484375 C 30.792969 4.484375 31.613281 5.304688 31.613281 6.328125 L 31.613281 26.175781 C 31.613281 26.253906 31.675781 26.316406 31.753906 26.316406 L 37.707031 26.316406 C 38.570312 26.316406 39.1875 26.84375 39.4375 27.519531 C 39.683594 28.191406 39.5625 28.996094 38.90625 29.558594 L 25.015625 41.464844 C 24.324219 42.058594 23.304688 42.058594 22.613281 41.464844 L 8.722656 29.558594 C 8.066406 28.996094 7.945312 28.191406 8.195312 27.519531 C 8.441406 26.84375 9.058594 26.316406 9.921875 26.316406 L 15.875 26.316406 C 15.953125 26.316406 16.015625 26.253906 16.015625 26.175781 L 16.015625 6.328125 C 16.015625 5.304688 16.835938 4.484375 17.859375 4.484375 Z M 17.859375 4.484375 "/>
</g>
</svg>
